X: 21164
T: Kathleen's
R: polka
M: 2/4
K: Bminor
|:dc/d/ fe|dB Bd|e>f ed|cA Ac|
dc/d/ fe|dB Bd|c/B/A Bc|1 B2 Bc:|2 B2 f>g||
|:af ge|fd de/f/|gf ed|cA A>e|
fd ec|dB cA|c/B/A FA|1 B2 Bf/g/:|2 B2 Bc||

